Papirus/32x32/mimetypes/application-vnd.insync.link.drive.form.svg

<?xml version="1.0" encoding="UTF-8" standalone="no"?>
<svg xmlns="http://www.w3.org/2000/svg" height="32" width="32" version="1.1">
 <path style="fill:#13a553" d="m7.25 4c-0.6925 0-1.25 0.5575-1.25 1.25v22.5c0 0.692 0.5575 1.25 1.25 1.25h17.5c0.692 0 1.25-0.558 1.25-1.25v-15.75l-6.875-1.125-1.125-6.875z"/>
 <path style="fill:#70c896" d="m18 4v6.6667c0 0.736 0.597 1.333 1.333 1.333h6.667l-8-8z"/>
 <path opacity=".2" d="m7.25 4c-0.6925 0-1.25 0.5575-1.25 1.25v1c0-0.6925 0.5575-1.25 1.25-1.25h10.75v-1z" fill="#ffffff"/>
 <rect style="fill:#ffffff" height="1" width="8" y="17" x="14"/>
 <rect style="fill:#ffffff" height="1" width="8" y="20" x="14"/>
 <rect style="fill:#ffffff" height="1" width="8" y="23" x="14"/>
 <rect x="10" y="17" width="2" height="1" style="fill:#ffffff"/>
 <rect x="10" y="20" width="2" height="1" style="fill:#ffffff"/>
 <rect x="10" y="23" width="2" height="1" style="fill:#ffffff"/>
</svg>

<?xml version="1.0" encoding="UTF-8" standalone="no"?>
<svg xmlns="http://www.w3.org/2000/svg" height="32" width="32" version="1.1">
 <path d="M 7.25,4 C 6.5575,4 6,4.5575 6,5.25 V 27.75 C 6,28.442 6.5575,29 7.25,29 H 24.75 C 25.442,29 26,28.442 26,27.75 V 12 L 19.125,10.875 18,4 Z" style="fill:#13a553"/>
 <path d="M 18,4 V 10.667 C 18,11.403 18.597,12 19.333,12 H 26 L 18,3.9997 Z" style="fill:#70c795"/>
 <path opacity=".2" d="m7.25 4c-0.6925 0-1.25 0.5575-1.25 1.25v1c0-0.6925 0.5575-1.25 1.25-1.25h10.75v-1z" fill="#ffffff"/>
 <rect style="fill:#ffffff" height="1" width="10" y="19" x="12"/>
 <rect style="fill:#ffffff" height="1" width="10" y="21" x="12"/>
 <rect style="fill:#ffffff" height="1" width="10" y="23" x="12"/>
 <rect x="10" y="19" width="1" height="1" style="fill:#ffffff"/>
 <rect x="10" y="21" width="1" height="1" style="fill:#ffffff"/>
 <rect x="10" y="23" width="1" height="1" style="fill:#ffffff"/>
 <rect x="12" y="17" width="10" height="1" style="fill:#ffffff"/>
 <rect style="fill:#ffffff" height="1" width="1" y="17" x="10"/>
</svg>
